wp-content/themes/qavs/images/icon_twitter.svg

<?xml version="1.0" encoding="UTF-8"?>
<svg width="40px" height="40px" viewBox="0 0 40 40" version="1.1" xmlns="http://www.w3.org/2000/svg" xmlns:xlink="http://www.w3.org/1999/xlink">
    <!-- Generator: Sketch 52.2 (67145) - http://www.bohemiancoding.com/sketch -->
    <title>Group 28</title>
    <desc>Created with Sketch.</desc>
    <g id="Page-1" stroke="none" stroke-width="1" fill="none" fill-rule="evenodd">
        <g id="QAVS_news-2-UI_11-05-2021" transform="translate(-311.000000, -2177.000000)">
            <g id="Group-28" transform="translate(312.000000, 2178.000000)">
                <g id="Group-16">
                    <circle id="Oval-Copy-3" stroke="#136C85" fill="#FFFFFF" cx="19" cy="19" r="19"></circle>
                    <path d="M14.9238579,27.7519942 C16.5245347,27.7519942 18.0274958,27.5000453 19.4327411,26.9961476 C20.8379865,26.4922498 22.0384941,25.8173042 23.034264,24.9713107 C24.0300338,24.1253173 24.8885364,23.1521936 25.6097716,22.0519398 C26.3310068,20.951686 26.8684433,19.8028916 27.2220812,18.6055566 C27.5757191,17.4082215 27.7525381,16.2085751 27.7525381,15.0066171 C27.7525381,14.7477339 27.7478849,14.5535714 27.7385787,14.4241298 C28.6226734,13.7861675 29.3764805,13.0141407 30,12.1080493 C29.1345178,12.4778825 28.2690355,12.7090283 27.4035533,12.8014866 C28.3807107,12.2189993 29.0414552,11.3961204 29.3857868,10.3328499 C28.4923858,10.8598622 27.5384941,11.2204496 26.5241117,11.414612 C25.6307107,10.4715373 24.5325719,10 23.2296954,10 C21.9826565,10 20.9194162,10.4368655 20.0399746,11.3105964 C19.160533,12.1843274 18.7208122,13.2406635 18.7208122,14.4796048 C18.7208122,14.8124547 18.7580372,15.1545504 18.8324873,15.505892 C16.9898477,15.4134336 15.2612098,14.9534536 13.6465736,14.1259518 C12.0319374,13.29845 10.6615905,12.1958847 9.53553299,10.818256 C9.12605753,11.5116933 8.9213198,12.2652284 8.9213198,13.0788615 C8.9213198,13.8462654 9.10279188,14.5581943 9.46573604,15.2146483 C9.8286802,15.8711022 10.3172589,16.4027375 10.9314721,16.809554 C10.2055838,16.7818165 9.52622673,16.592277 8.89340102,16.2409355 L8.89340102,16.2964104 C8.89340102,17.3781726 9.23540609,18.3281817 9.91941624,19.1464376 C10.6034264,19.9646936 11.4665821,20.4801487 12.5088832,20.6928028 C12.1180203,20.7945069 11.7225042,20.845359 11.322335,20.845359 C11.0617597,20.845359 10.7779188,20.8222444 10.4708122,20.7760152 C10.7593063,21.6728608 11.2897631,22.4102157 12.0621827,22.9880801 C12.8346024,23.5659445 13.7093909,23.8641226 14.6865482,23.8826142 C13.0486464,25.1585388 11.1827411,25.7965011 9.08883249,25.7965011 C8.68866328,25.7965011 8.32571912,25.7780094 8,25.7410261 C10.0939086,27.0816715 12.4018613,27.7519942 14.9238579,27.7519942 Z" id="" fill="#136C85" fill-rule="nonzero"></path>
                </g>
                <g id="Group-27" transform="translate(8.000000, 10.000000)"></g>
            </g>
        </g>
    </g>
</svg>

<svg width="40" height="40" xmlns="http://www.w3.org/2000/svg"><g fill="none" fill-rule="evenodd"><g transform="translate(1 1)"><circle stroke="#136C85" fill="#FFF" cx="19" cy="19" r="19"/><path d="M14.924 27.752c1.6 0 3.103-.252 4.509-.756 1.405-.504 2.605-1.179 3.601-2.025a13.575 13.575 0 002.576-2.92 12.967 12.967 0 001.612-3.445 12.649 12.649 0 00.517-4.182A9.415 9.415 0 0030 12.108a9.03 9.03 0 01-2.596.693c.977-.582 1.637-1.405 1.982-2.468a8.876 8.876 0 01-2.862 1.082C25.631 10.472 24.533 10 23.23 10c-1.247 0-2.31.437-3.19 1.31-.88.874-1.32 1.93-1.32 3.17 0 .332.038.675.112 1.026a12.628 12.628 0 01-5.185-1.38 12.766 12.766 0 01-4.111-3.308 4.367 4.367 0 00-.615 2.26c0 .768.182 1.48.545 2.137a4.485 4.485 0 001.465 1.595 4.495 4.495 0 01-2.038-.57v.056a4.31 4.31 0 001.026 2.85 4.441 4.441 0 002.59 1.547c-.391.102-.786.152-1.187.152-.26 0-.544-.023-.851-.069a4.383 4.383 0 001.591 2.212 4.415 4.415 0 002.625.895c-1.638 1.276-3.504 1.914-5.598 1.914-.4 0-.763-.019-1.089-.056 2.094 1.34 4.402 2.011 6.924 2.011z" fill="#136C85" fill-rule="nonzero"/></g></g></svg>
